packages/dnb-ui-lib/assets/icons/kid_number_medium.svg

<svg width="24" height="24" viewBox="0 0 24 24" fill="none" xmlns="http://www.w3.org/2000/svg">
<path fill-rule="evenodd" clip-rule="evenodd" d="M2 2.25C1.0335 2.25 0.25 3.0335 0.25 4V20C0.25 20.9665 1.0335 21.75 2 21.75H22C22.9665 21.75 23.75 20.9665 23.75 20V4C23.75 3.0335 22.9665 2.25 22 2.25H2ZM1.75 4C1.75 3.86193 1.86193 3.75 2 3.75H22C22.1381 3.75 22.25 3.86193 22.25 4V20C22.25 20.1381 22.1381 20.25 22 20.25H2C1.86193 20.25 1.75 20.1381 1.75 20V4ZM7.24 11.733L9.67 15H7.969L6.439 12.732L6.16 13.083V15H4.81V8.70001H6.16V11.229L8.059 8.70001H9.67L7.24 11.733ZM11.1487 15V8.70001H12.4987V15H11.1487ZM17.9222 9.09601C17.4422 8.83201 16.8782 8.70001 16.2302 8.70001H14.5652V15H16.2302C16.8782 15 17.4422 14.871 17.9222 14.613C18.4082 14.349 18.7832 13.98 19.0472 13.506C19.3112 13.032 19.4432 12.48 19.4432 11.85C19.4432 11.22 19.3112 10.668 19.0472 10.194C18.7832 9.72001 18.4082 9.35401 17.9222 9.09601ZM17.5442 13.362C17.1962 13.734 16.7162 13.92 16.1042 13.92H15.9152V9.78001H16.1042C16.7162 9.78001 17.1962 9.96601 17.5442 10.338C17.8922 10.71 18.0662 11.214 18.0662 11.85C18.0662 12.486 17.8922 12.99 17.5442 13.362Z" fill="black"/>
</svg>

<svg width="24" height="24" viewBox="0 0 24 24" fill="none" xmlns="http://www.w3.org/2000/svg"><path fill-rule="evenodd" clip-rule="evenodd" d="M2 2.25A1.75 1.75 0 00.25 4v16c0 .966.784 1.75 1.75 1.75h20A1.75 1.75 0 0023.75 20V4A1.75 1.75 0 0022 2.25H2zM1.75 4A.25.25 0 012 3.75h20a.25.25 0 01.25.25v16a.25.25 0 01-.25.25H2a.25.25 0 01-.25-.25V4zm5.49 7.733L9.67 15H7.969l-1.53-2.268-.279.351V15H4.81V8.7h1.35v2.529L8.059 8.7H9.67l-2.43 3.033zM11.149 15V8.7h1.35V15h-1.35zm6.773-5.904c-.48-.264-1.044-.396-1.692-.396h-1.665V15h1.665c.648 0 1.212-.129 1.692-.387a2.776 2.776 0 001.125-1.107c.264-.474.396-1.026.396-1.656 0-.63-.132-1.182-.396-1.656a2.718 2.718 0 00-1.125-1.098zm-.378 4.266c-.348.372-.828.558-1.44.558h-.189V9.78h.19c.611 0 1.091.186 1.44.558.347.372.521.876.521 1.512s-.174 1.14-.522 1.512z" fill="#000"/></svg>
